!!!COM: Vivaldi, Antonio Lucio
!!!CDT: 1678/03/04-1741/08/28
!!!OPR: 12 sonatas for two violins and basso continuo
!!!OTL: Sonata in A major, op. @{OPS}, no. @{ONM} (@{SCT})
!!!OPS: 1
!!!ONM: 9
!!!OMV: 1. Preludio
!!!SCT: RV 75
!!!SCA: Antonio Vivaldi: Thematisch-systematisches Verzeichnis seiner Werke (Ryom-Verzeichnis)
!!!OMD: Allegro
!!!key: A
**kern	**fb	**kern	**kern
*part3	*	*part2	*part1
*staff3	*	*staff2	*staff1
*ICstr&ICklav	*	*ICstr	*ICstr
*Icello&Icemba	*	*Ivioln	*Ivioln
*	*	*I#2	*I#1
*I"Violoncello\nContinuo	*	*I"Violin 2	*I"Violin 1
*I'bc	*	*I'v2	*I'v1
*>[A,A]	*>[A,A]	*>[A,A]	*>[A,A]
*>norep[A]	*>norep[A]	*>norep[A]	*>norep[A]
*>A	*>A	*>A	*>A
*clefF4	*	*clefG2	*clefG2
*k[f#c#g#]	*	*k[f#c#g#]	*k[f#c#g#]
*A:	*	*A:	*A:
*M9/8	*	*M9/8	*M9/8
*MM198	*	*MM198	*MM198
=1	=1	=1	=1
2.AA/	.	8%9r	8r
.	.	.	8aa\L
.	.	.	8gg#y\J
.	.	.	8aa\L
.	.	.	8ee\
.	.	.	8dd\J
4r	.	.	8ee\L
.	.	.	8cc#y\
8r	.	.	8b\J
=2	=2	=2	=2
8%9r	.	8%9r	8cc#y\L
.	.	.	8aa\
.	.	.	8gg#y\J
.	.	.	8aa\L
.	.	.	8ee\
.	.	.	8dd\J
.	.	.	8ee\L
.	.	.	8cc#y\
.	.	.	8b\J
=3	=3	=3	=3
2.AA/	.	8r	4.a/
.	.	8aa\L	.
.	.	8gg#y\J	.
.	.	8aa\L	4r
.	.	8ee\	.
.	.	8dd\J	8r
4r	.	8ee\L	4r
.	.	8cc#y\	.
8r	.	8b\J	8r
=4	=4	=4	=4
8%9r	.	8cc#y\L	8%9r
.	.	8aa\	.
.	.	8gg#y\J	.
.	.	8aa\L	.
.	.	8ee\	.
.	.	8dd\J	.
.	.	8ee\L	.
.	.	8cc#y\	.
.	.	8b\J	.
=5	=5	=5	=5
2.AA/	.	4.a/	8r
.	.	.	8e/L
.	.	.	8a/J
.	.	4r	8cc#y\L
.	.	.	8a\
.	.	8r	8cc#y\J
4r	.	4r	8ee\L
.	.	.	8cc#y\
8r	.	8r	8ee\J
!!LO:LB:g=original
=6	=6	=6	=6
2.AA/	.	8r	4.aa\
.	.	8e/L	.
.	.	8a/J	.
.	.	8cc#y\L	4r
.	.	8a\	.
.	.	8cc#y\J	8r
4r	.	8ee\L	4r
.	.	8cc#y\	.
8r	.	8ee\J	8r
=7	=7	=7	=7
4.AA/	.	4.aa\	8r
.	.	.	8aa\L
.	.	.	8gg#y\J
2.C#y/	6	4r	8aa\L
.	.	.	8ee\
.	.	8r	8cc#y\J
.	.	4r	8a\L
.	.	.	8aa\
.	.	8r	8gg#y\J
=8	=8	=8	=8
4.D\	.	8r	4.ff#y\
.	.	8dd\L	.
.	.	8cc#y\J	.
2.F#y\	6	8dd/L	4r
.	.	8a/	.
.	.	8f#y/J	8r
.	.	8d/L	4r
.	.	8dd/	.
.	.	8cc#y/J	8r
=9	=9	=9	=9
4.G#y\	6	4.b\	8r
.	.	.	8bb\L
.	.	.	8aa\J
2.D#X\	6	4r	8bb\L
.	.	.	8ff#y\
.	.	8r	8dd#X\J
.	.	4r	8b\L
.	.	.	8bb\
.	.	8r	8aa\J
=10	=10	=10	=10
4.E\	.	8r	4.gg#y\
.	.	8ee\L	.
.	.	8dd\J	.
2.G#y\	6	8ee\L	4r
.	.	8b\	.
.	.	8g#y\J	8r
.	.	8e\L	4r
.	.	8ee\	.
.	.	8dd\J	8r
=11	=11	=11	=11
4.A\	.	4.cc#y\	8r
.	.	.	8aa\L
.	.	.	8gg#y\J
2.C#y/	6	2.ee\	8aa\L
.	.	.	8ee\
.	.	.	8cc#y\J
.	.	.	8a\L
.	.	.	8aa\
.	.	.	8gg#y\J
=12	=12	=12	=12
4.D\	5	4.a/	8ff#y\L
.	.	.	8bb\
.	.	.	8aa\J
2.D#X\	6	2.ff#y\	8bb\L
.	.	.	8ff#y\
.	.	.	8dd#X\J
.	.	.	8b\L
.	.	.	8bb\
.	.	.	8aa\J
!!LO:LB:g=original
=13	=13	=13	=13
4.E\	5	4.b\	8gg#y\L
.	.	.	8ccc#y\
.	.	.	8bb\J
2.E#X\	6	2.gg#y\	8ccc#y\L
.	.	.	8gg#y\
.	.	.	8ee#X\J
.	.	.	8cc#y\L
.	.	.	8ccc#y\
.	.	.	8bb\J
=14	=14	=14	=14
2.F#y\	5	4.cc#y\	8aa\L
.	.	.	8ddd\
.	.	.	8ccc#y\J
.	6	2.aa\	8ddd\L
.	.	.	8aa\
.	.	.	8ff#y\J
4r	.	.	8dd\L
.	.	.	8ddd\
8r	.	.	8ccc#y\J
=15	=15	=15	=15
2.G#y\	6	4.ee\	8bb\L
.	.	.	8eee\
.	.	.	8ddd\J
.	.	2.bb\	8eee\L
.	.	.	8bb\
.	.	.	8gg#y\J
4r	.	.	8ee\L
.	.	.	8eee\
8r	.	.	8ddd\J
=16	=16	=16	=16
2.A\	.	8aa\L	8ccc#y\L
.	.	8ccc#y\	8eee\
.	.	8bb\J	8ddd\J
.	.	8aa\L	8ccc#y\L
.	.	8ccc#y\	8eee\
.	.	8bb\J	8ddd\J
4r	.	8aa\L	8ccc#y\L
.	.	8bb\	8ddd\
8r	.	8ccc#y\J	8eee\J
=17	=17	=17	=17
8%9r	.	8gg#y\L	8bb\L
.	.	8bb\	8ddd\
.	.	8aa\J	8ccc#y\J
.	.	8gg#y\L	8bb\L
.	.	8bb\	8ddd\
.	.	8aa\J	8ccc#y\J
.	.	8gg#y\L	8bb\L
.	.	8aa\	8ccc#y\
.	.	8bb\J	8ddd\J
=18	=18	=18	=18
8%9r	.	8ff#y\L	8aa\L
.	.	8aa\	8ccc#y\
.	.	8gg#y\J	8bb\J
.	.	8ff#y\L	8aa\L
.	.	8aa\	8ccc#y\
.	.	8gg#y\J	8bb\J
.	.	8ff#y\L	8aa\L
.	.	8gg#y\	8bb\
.	.	8aa\J	8ccc#y\J
=19	=19	=19	=19
8%9r	.	8ee\L	8gg#y\L
.	.	8gg#y\	8bb\
.	.	8ff#y\J	8aa\J
.	.	8ee\L	8gg#y\L
.	.	8gg#y\	8bb\
.	.	8ff#y\J	8aa\J
.	.	8ee\L	8gg#y\L
.	.	8ff#y\	8aa\
.	.	8gg#y\J	8bb\J
!!LO:LB:g=original
=20	=20	=20	=20
8%9r	.	8dd#X\L	8ff#y\L
.	.	8ff#y\	8aa\
.	.	8ee\J	8gg#y\J
.	.	8dd#y\L	8ff#y\L
.	.	8ff#y\	8aa\
.	.	8ee\J	8gg#y\J
.	.	8dd#y\L	8ff#y\L
.	.	8ee\	8gg#y\
.	.	8ff#y\J	8aa\J
=21	=21	=21	=21
8r	.	4.ee\	4.gg#y\
8e\L	.	.	.
8d\J	.	.	.
8c#y\L	6	4r	[2.aa\
8d\	.	.	.
8e\J	.	8r	.
8c#y\L	.	4.ee\	.
8d\	.	.	.
8e\J	.	.	.
=22	=22	=22	=22
8BB\L	7	[2.ff#y\	4.aa\]
8d\	.	.	.
8c#y\J	.	.	.
8B\L	6 5	.	[2.gg#y\
8c#y\	.	.	.
8d\J	.	.	.
8B\L	.	8ff#y\L]	.
8c#y\	.	8ee\	.
8d\J	.	8dd\J	.
=23	=23	=23	=23
8AA\L	7	[2.ee\	4.gg#y\]
8c#y\	.	.	.
8B\J	.	.	.
8A\L	6 5	.	[2.ff#y\
8B\	.	.	.
8c#y\J	.	.	.
8A\L	.	8ee\L]	.
8B\	.	8dd\	.
8c#y\J	.	8cc#y\J	.
=24	=24	=24	=24
8GG#y\L	7	[2.dd\	4.ff#y\]
8B\	.	.	.
8A\J	.	.	.
8G#y\L	6 5	.	[2.ee\
8A\	.	.	.
8B\J	.	.	.
8G#y\L	.	8dd\L]	.
8A\	.	8cc#y\	.
8B\J	.	8b\J	.
=25	=25	=25	=25
8A\L	6 5	4.cc#y\	4.ee\]
8G#y\	.	.	.
8A\J	.	.	.
8B\L	#	4.f#y/	2.dd#X\
8A\	.	.	.
8B\J	.	.	.
8BB/L	.	4.b\	.
8AA/	.	.	.
8BB/J	.	.	.
=26	=26	=26	=26
2.EE/;	.	2.g#y/;	2.ee\;
4ryy	.	8ryy	4ryy
.	.	4ryy	.
8ryy	.	.	8ryy
=:|!	=:|!	=:|!	=:|!
*-	*-	*-	*-
!!!SMS: RV 75 / Estienne Roger (No. 363), Amsterdam [facs.]
!!!ENC: Fran Bennion   rev. 05/14/21 E Correia
!!!END: 2004/10/26
!!!ONB: Converted from MuseData with musedata2hum on Sat May 11 12:01:56 2024
!!!YEM: (C) 2004, 2019 Center for Computer Assisted Research in the Humanities
!!!system-decoration: [(s1,s2,s3)]
!!!URL-info: https://wiki.ccarh.org/wiki/MuseData:_Antonio_Vivaldi#Op._1:_Suonate_da_camera_a_tr.C3.A8.2C_due_violini_e_violone_o_cembalo Information about Vivaldi Op. 1 on the CCARH wiki
!!!URL-pdf: https://pdf.musedata.org/vivaldi-op01-no09.pdf#page=1 MuseData edition
!!#URL-pdf: https://s9.imslp.org/files/imglnks/usimg/1/18/IMSLP280399-PMLP10351-Vivaldi_Sonatas_Op_1_-_Violino_Primo.pdf#page=14 Violino primo part, Amsterdam: Estienne Roger, n.d.(ca.1723). Plate 363.
!!!URL-pdf: https://s9.imslp.org/files/imglnks/usimg/d/d5/IMSLP280400-PMLP10351-Vivaldi_Sonatas_Op_1_-_Violino_Secondo.pdf#page=12 Violino secondo part, Amsterdam: Estienne Roger, n.d.(ca.1723). Plate 363.
!!!URL-pdf: https://s9.imslp.org/files/imglnks/usimg/8/89/IMSLP280401-PMLP10351-Vivaldi_Sonatas_Op_1_-_Organo_e_Violoncello.pdf#page=12 Organo e Violoncello parts, Amsterdam: Estienne Roger, n.d.(ca.1723). Plate 363.
!!!URL-youtube: https://www.youtube.com/watch?v=P5HHPe_W6Uo&t=2605s L'Arte dell'Arco
!!!title: @{OTL}, mov. @{OMV}
!!!filter-vcross: vcross
!!!EEV: 2024/05/11
!!!source-file: https://bitbucket.org/musedata/vivaldi/src/master/roger/op1/no09/stage2/01/01
!!!source-file: https://bitbucket.org/musedata/vivaldi/src/master/roger/op1/no09/stage2/01/02
!!!source-file: https://bitbucket.org/musedata/vivaldi/src/master/roger/op1/no09/stage2/01/03
!!!source-file: https://bitbucket.org/musedata/vivaldi/src/master/roger/op1/no09/stage2/01/04
